icons/redis-logo.svg

<svg xmlns="http://www.w3.org/2000/svg" width="256" height="256" fill="none" viewBox="0 0 256 256"><rect width="256" height="256" fill="#F4F2ED" rx="60"/><g clip-path="url(#clip0_7_217)"><path fill="#A41E11" d="M220.161 174.468C209.488 180.035 154.204 202.765 142.434 208.899C130.663 215.034 124.126 214.976 114.826 210.532C105.526 206.089 46.6945 182.326 36.0904 177.257C30.7884 174.722 28.0101 172.591 28.0101 170.576V150.36C28.0101 150.36 104.609 133.685 116.978 129.247C129.348 124.809 133.627 124.65 144.157 128.505C154.687 132.359 217.606 143.711 228.003 147.523V167.459C228.003 169.458 225.607 171.7 220.172 174.479L220.161 174.468Z"/><path fill="#D82C20" d="M220.162 154.246C209.488 159.813 154.204 182.543 142.434 188.677C130.663 194.812 124.126 194.753 114.826 190.31C105.526 185.867 46.6946 162.103 36.0905 157.035C25.4864 151.966 25.2743 148.483 35.6822 144.405L116.973 112.932C129.338 108.5 133.622 108.335 144.151 112.19C154.681 116.045 209.632 137.916 220.024 141.786C230.416 145.657 230.824 148.732 220.151 154.299L220.162 154.246Z"/><path fill="#A41E11" d="M220.161 141.5C209.488 147.067 154.204 169.797 142.434 175.931C130.663 182.066 124.126 182.007 114.826 177.564C105.526 173.121 46.6945 149.357 36.0904 144.289C30.7884 141.754 28.0101 139.623 28.0101 137.608V117.391C28.0101 117.391 104.609 100.716 116.978 96.2787C129.348 91.8409 133.627 91.6818 144.157 95.5364C154.687 99.391 217.606 110.743 228.003 114.555V134.491C228.003 136.489 225.607 138.732 220.172 141.51L220.161 141.5Z"/><path fill="#D82C20" d="M220.162 121.283C209.488 126.85 154.204 149.58 142.434 155.715C130.663 161.849 124.126 161.791 114.826 157.348C105.526 152.904 46.6946 129.141 36.0905 124.072C25.4864 119.003 25.2743 115.52 35.6822 111.442L116.973 79.9748C129.338 75.537 133.622 75.378 144.151 79.2326C154.681 83.0871 209.632 104.963 220.034 108.765C230.437 112.567 230.835 115.711 220.162 121.278V121.283Z"/><path fill="#A41E11" d="M220.161 107.312C209.488 112.879 154.204 135.609 142.434 141.749C130.663 147.889 124.126 147.825 114.826 143.382C105.526 138.939 46.6945 115.175 36.0904 110.106C30.7884 107.572 28.0101 105.441 28.0101 103.426V83.1985C28.0101 83.1985 104.609 66.5236 116.978 62.0858C129.348 57.648 133.627 57.4889 144.157 61.3435C154.687 65.1981 217.606 76.5498 228.003 80.3619V100.298C228.003 102.297 225.607 104.539 220.172 107.318L220.161 107.312Z"/><path fill="#D82C20" d="M220.162 87.0902C209.488 92.6573 154.204 115.387 142.434 121.522C130.663 127.656 124.126 127.598 114.826 123.155C105.526 118.712 46.6946 94.9478 36.0905 89.8791C25.4864 84.8103 25.2743 81.3269 35.6822 77.2496L116.973 45.782C129.338 41.3442 133.622 41.1851 144.151 45.0397C154.681 48.8943 209.632 70.7705 220.034 74.5721C230.437 78.3736 230.835 81.5177 220.162 87.0849V87.0902Z"/><path fill="#fff" d="M132.996 78.7554L126.729 68.3369L106.719 66.5342L121.65 61.1473L117.169 52.8761L131.146 58.3372L144.326 54.0213L140.763 62.5682L154.199 67.6052L136.872 69.4079L132.996 78.7554ZM99.6143 99.497L145.954 92.3816L131.957 112.911L99.6143 99.497Z"/><path fill="#fff" d="M87.1226 92.0158C100.803 92.0158 111.894 87.7168 111.894 82.4138C111.894 77.1107 100.803 72.8118 87.1226 72.8118C73.4419 72.8118 62.3515 77.1107 62.3515 82.4138C62.3515 87.7168 73.4419 92.0158 87.1226 92.0158Z"/><path fill="#7A0C00" d="M202.113 81.0141L174.702 91.8408L174.681 70.1714L202.113 81.0141Z"/><path fill="#AD2115" d="M174.707 91.8408L171.738 93.0072L144.348 82.1805L174.691 70.1766L174.707 91.8408Z"/></g><defs><clipPath id="clip0_7_217"><rect width="200" height="200" fill="#fff" transform="translate(28 28)"/></clipPath></defs></svg>

<svg xmlns="http://www.w3.org/2000/svg" width="256" height="256" viewBox="0 0 256 256"><g fill="none"><rect width="256" height="256" fill="#242938" rx="60"/><g clip-path="url(#skillIconsRedisDark0)"><path fill="#A41E11" d="M220.161 174.468c-10.673 5.567-65.957 28.297-77.727 34.431c-11.771 6.135-18.308 6.077-27.608 1.633c-9.3-4.443-68.131-28.206-78.736-33.275c-5.302-2.535-8.08-4.666-8.08-6.681V150.36s76.599-16.675 88.968-21.113c12.37-4.438 16.649-4.597 27.179-.742c10.53 3.854 73.449 15.206 83.846 19.018v19.936c0 1.999-2.396 4.241-7.831 7.02z"/><path fill="#D82C20" d="M220.162 154.246c-10.674 5.567-65.958 28.297-77.728 34.431c-11.771 6.135-18.308 6.076-27.608 1.633s-68.131-28.207-78.735-33.275c-10.605-5.069-10.817-8.552-.409-12.63l81.291-31.473c12.365-4.432 16.649-4.597 27.178-.742c10.53 3.855 65.481 25.726 75.873 29.596c10.392 3.871 10.8 6.946.127 12.513z"/><path fill="#A41E11" d="M220.161 141.5c-10.673 5.567-65.957 28.297-77.727 34.431c-11.771 6.135-18.308 6.076-27.608 1.633s-68.131-28.207-78.736-33.275c-5.302-2.535-8.08-4.666-8.08-6.681v-20.217s76.599-16.675 88.968-21.112c12.37-4.438 16.649-4.597 27.179-.743c10.53 3.855 73.449 15.207 83.846 19.019v19.936c0 1.998-2.396 4.241-7.831 7.019z"/><path fill="#D82C20" d="M220.162 121.283c-10.674 5.567-65.958 28.297-77.728 34.432c-11.771 6.134-18.308 6.076-27.608 1.633c-9.3-4.444-68.131-28.207-78.735-33.276c-10.605-5.069-10.817-8.552-.409-12.63l81.291-31.467c12.365-4.438 16.649-4.597 27.178-.742c10.53 3.854 65.481 25.73 75.883 29.532c10.403 3.802 10.801 6.946.128 12.513z"/><path fill="#A41E11" d="M220.161 107.312c-10.673 5.567-65.957 28.297-77.727 34.437c-11.771 6.14-18.308 6.076-27.608 1.633s-68.131-28.207-78.736-33.276c-5.302-2.534-8.08-4.665-8.08-6.68V83.198s76.599-16.674 88.968-21.112c12.37-4.438 16.649-4.597 27.179-.742c10.53 3.854 73.449 15.206 83.846 19.018v19.936c0 1.999-2.396 4.241-7.831 7.02z"/><path fill="#D82C20" d="M220.162 87.09c-10.674 5.567-65.958 28.297-77.728 34.432c-11.771 6.134-18.308 6.076-27.608 1.633S46.695 94.948 36.091 89.879c-10.605-5.069-10.817-8.552-.409-12.63l81.291-31.467c12.365-4.438 16.649-4.597 27.178-.742c10.53 3.854 65.481 25.73 75.883 29.532c10.403 3.802 10.801 6.946.128 12.513z"/><path fill="#fff" d="m132.996 78.755l-6.267-10.418l-20.01-1.803l14.931-5.387l-4.481-8.27l13.977 5.46l13.18-4.316l-3.563 8.547l13.436 5.037l-17.327 1.803zM99.614 99.497l46.34-7.115l-13.997 20.529zm-12.491-7.481c13.68 0 24.771-4.3 24.771-9.602c0-5.303-11.091-9.602-24.771-9.602c-13.681 0-24.772 4.299-24.772 9.602s11.09 9.602 24.772 9.602"/><path fill="#7A0C00" d="m202.113 81.014l-27.411 10.827l-.021-21.67z"/><path fill="#AD2115" d="m174.707 91.84l-2.969 1.167l-27.39-10.827l30.343-12.003z"/></g><defs><clipPath id="skillIconsRedisDark0"><path fill="#fff" d="M28 28h200v200H28z"/></clipPath></defs></g></svg>
